X:290
T:Polska efter Brynte Olsson (Kull)
S:efter Brynte Kull
B:EÖ, nr 290
R:Polska
O:Boda, Skillingmarks sn, Värmland
Z:Nils L
L:1/8
M:3/4
%%tuplets 0 0 1
U:t=tenuto
K:A
a | (3gba (3fag (3egf | (3(df)e (cE) A>c | B>e (3(GB)(E F)G | AB cd ea |
    (3gba (3fag (3egf | (3dfe cE Ac & x2cxx2 | ea gb (3efg | a2 A2 z ::
f | (3ecA tA,>C E>A | (3cea tB>e g>b | a>g f>e d>c | (3c"@-9,0(    )"ea A>c e>f |
    (3ecA  A,>C E>A | (3cea B>e g>b| a>g f>e d>c | (3efg [ac]3 :|

